X: 1
T: the Ale is Dear
R: reel
Z: 2019 John Chambers <jc:trillian.mit.edu>
M: C|
L: 1/8
K: Bm
|:\
"Bm"f2ef B2fe | "D"faef "A"cAAc |\
"Bm"f2ef B2fe | "D"f/g/a "A"ec "Bm"B2Bc :|
|:\
"Bm"BBc d2cB | "A"AAAB cABc |\
"G"BBBc d2cB | "F#"f2ec "Bm"B2B2 :|
